modules/themify-icons/icons/layout-media-overlay-alt-2.svg

<?xml version="1.0" encoding="utf-8"?>
<!-- Generated by IcoMoon.io -->
<!DOCTYPE svg PUBLIC "-//W3C//DTD SVG 1.1//EN" "http://www.w3.org/Graphics/SVG/1.1/DTD/svg11.dtd">
<svg version="1.1" xmlns="http://www.w3.org/2000/svg" xmlns:xlink="http://www.w3.org/1999/xlink" width="17" height="17" viewBox="0 0 17 17">
<g>
</g>
	<path d="M12 9h-10v-1h10v1zM12 10h-10v1h10v-1zM17 1v15h-17v-15h17zM16 2h-15v13h15v-13z" fill="#000000" />
</svg>

<svg xmlns="http://www.w3.org/2000/svg" width="17" height="17" viewBox="0 0 17 17"><path d="M12 9H2V8h10v1zm0 1H2v1h10v-1zm5-9v15H0V1h17zm-1 1H1v13h15V2z"/></svg>
